Numix-Light/16/status/indicator-keyboard-Fa-2.svg

<?xml version="1.0" encoding="UTF-8" standalone="no"?>
<svg
   xmlns:dc="http://purl.org/dc/elements/1.1/"
   xmlns:cc="http://creativecommons.org/ns#"
   xmlns:rdf="http://www.w3.org/1999/02/22-rdf-syntax-ns#"
   xmlns:svg="http://www.w3.org/2000/svg"
   xmlns="http://www.w3.org/2000/svg"
   xmlns:sodipodi="http://sodipodi.sourceforge.net/DTD/sodipodi-0.dtd"
   xmlns:inkscape="http://www.inkscape.org/namespaces/inkscape"
   viewBox="0 0 16 16"
   id="svg2"
   version="1.1"
   inkscape:version="0.91 r13725"
   sodipodi:docname="indicator-keyboard-Fa-2.svg">
  <metadata
     id="metadata14">
    <rdf:RDF>
      <cc:Work
         rdf:about="">
        <dc:format>image/svg+xml</dc:format>
        <dc:type
           rdf:resource="http://purl.org/dc/dcmitype/StillImage" />
      </cc:Work>
    </rdf:RDF>
  </metadata>
  <defs
     id="defs12" />
  <sodipodi:namedview
     pagecolor="#ffffff"
     bordercolor="#666666"
     borderopacity="1"
     objecttolerance="10"
     gridtolerance="10"
     guidetolerance="10"
     inkscape:pageopacity="0"
     inkscape:pageshadow="2"
     inkscape:window-width="640"
     inkscape:window-height="480"
     id="namedview10"
     showgrid="false"
     inkscape:zoom="14.75"
     inkscape:cx="8"
     inkscape:cy="8"
     inkscape:window-x="65"
     inkscape:window-y="24"
     inkscape:window-maximized="0"
     inkscape:current-layer="svg2" />
  <path
     style="fill:#353535;fill-opacity:1"
     d="M 1.5996094 0 C 0.71320937 2.9605947e-16 0 0.71320937 0 1.5996094 L 0 14.400391 C 2.9605947e-16 15.286791 0.71320937 16 1.5996094 16 L 14.400391 16 C 15.286791 16 16 15.286791 16 14.400391 L 16 1.5996094 C 16 0.71320937 15.286791 0 14.400391 0 L 1.5996094 0 z M 2.5449219 4.859375 L 6.0996094 4.859375 L 6.0996094 5.390625 L 3.15625 5.390625 L 3.15625 7.5859375 L 5.7675781 7.5859375 L 5.7675781 8.1171875 L 3.15625 8.1171875 L 3.15625 11.095703 L 2.5449219 11.095703 L 2.5449219 4.859375 z M 8.2460938 6.3359375 C 8.5520937 6.3359375 8.8095313 6.3807031 9.0195312 6.4707031 C 9.2355312 6.5547031 9.4109688 6.6740781 9.5429688 6.8300781 C 9.6749688 6.9800781 9.7700781 7.1591406 9.8300781 7.3691406 C 9.8900781 7.5791406 9.9199219 7.8086875 9.9199219 8.0546875 L 9.9199219 10.988281 C 9.8599219 11.006281 9.7722031 11.026781 9.6582031 11.050781 C 9.5442031 11.068781 9.4136719 11.089281 9.2636719 11.113281 C 9.1136719 11.137281 8.9457656 11.155969 8.7597656 11.167969 C 8.5797656 11.185969 8.3931719 11.195313 8.2011719 11.195312 C 7.9551719 11.195312 7.7275781 11.167281 7.5175781 11.113281 C 7.3135781 11.059281 7.1325625 10.975328 6.9765625 10.861328 C 6.8265625 10.741328 6.7071875 10.592109 6.6171875 10.412109 C 6.5331875 10.226109 6.4902344 10.000328 6.4902344 9.7363281 C 6.4902344 9.4843281 6.5387656 9.2698437 6.6347656 9.0898438 C 6.7307656 8.9098438 6.8670156 8.7624375 7.0410156 8.6484375 C 7.2150156 8.5284375 7.4221094 8.4407187 7.6621094 8.3867188 C 7.9021094 8.3327188 8.1613594 8.3066406 8.4433594 8.3066406 C 8.5273594 8.3066406 8.6150781 8.3122187 8.7050781 8.3242188 C 8.8010781 8.3302187 8.8906094 8.341375 8.9746094 8.359375 C 9.0646094 8.371375 9.1392187 8.3862969 9.1992188 8.4042969 C 9.2652187 8.4162969 9.3119375 8.4294063 9.3359375 8.4414062 L 9.3359375 8.1523438 C 9.3359375 7.9903438 9.3228281 7.8355469 9.2988281 7.6855469 C 9.2748281 7.5295469 9.2207187 7.3914844 9.1367188 7.2714844 C 9.0587187 7.1454844 8.9449219 7.0466094 8.7949219 6.9746094 C 8.6509219 6.8966094 8.45875 6.8574219 8.21875 6.8574219 C 7.87675 6.8574219 7.6230781 6.8816875 7.4550781 6.9296875 C 7.2870781 6.9776875 7.1639375 7.016875 7.0859375 7.046875 L 7.0039062 6.5332031 C 7.1059062 6.4852031 7.2626562 6.4404375 7.4726562 6.3984375 C 7.6886563 6.3564375 7.9460938 6.3359375 8.2460938 6.3359375 z M 12.126953 8.7539062 C 12.520853 8.7539062 12.816725 8.851875 13.015625 9.046875 C 13.214524 9.237975 13.314453 9.5044563 13.314453 9.8476562 C 13.314453 9.9997563 13.287022 10.14475 13.232422 10.28125 C 13.177822 10.41385 13.103365 10.543169 13.009766 10.667969 C 12.920066 10.792769 12.818172 10.912297 12.701172 11.029297 C 12.584172 11.146297 12.46465 11.263859 12.34375 11.380859 C 12.24235 11.478359 12.142422 11.578288 12.044922 11.679688 C 11.951322 11.777188 11.865109 11.877116 11.787109 11.978516 C 11.713009 12.076016 11.654222 12.172031 11.607422 12.269531 C 11.564522 12.363131 11.542969 12.457181 11.542969 12.550781 L 11.542969 12.5625 L 13.455078 12.5625 L 13.455078 12.896484 L 11.121094 12.896484 C 11.121094 12.888684 11.119168 12.874969 11.115234 12.855469 L 11.115234 12.755859 C 11.115234 12.572559 11.148544 12.402094 11.214844 12.246094 C 11.281144 12.086194 11.365397 11.937275 11.466797 11.796875 C 11.572097 11.656475 11.685747 11.525197 11.810547 11.404297 C 11.939247 11.283397 12.062687 11.165834 12.179688 11.052734 C 12.277187 10.959134 12.369278 10.869003 12.455078 10.783203 C 12.544778 10.693503 12.623153 10.603366 12.689453 10.509766 C 12.755753 10.416166 12.806703 10.316238 12.845703 10.210938 C 12.884703 10.105638 12.904297 9.9900344 12.904297 9.8652344 C 12.904297 9.5922344 12.831794 9.39825 12.683594 9.28125 C 12.539294 9.16035 12.355113 9.0996094 12.132812 9.0996094 C 12.008012 9.0996094 11.896328 9.1152844 11.798828 9.1464844 C 11.701328 9.1776844 11.617069 9.2149125 11.542969 9.2578125 C 11.472769 9.2968125 11.412028 9.3379594 11.361328 9.3808594 C 11.310628 9.4237594 11.2734 9.4570688 11.25 9.4804688 L 11.050781 9.2167969 C 11.074181 9.1894969 11.115328 9.1503094 11.173828 9.0996094 C 11.236228 9.0450094 11.312644 8.9921062 11.402344 8.9414062 C 11.495944 8.8907063 11.601756 8.8476 11.722656 8.8125 C 11.843556 8.7735 11.978753 8.7539063 12.126953 8.7539062 z M 8.4257812 8.8105469 C 8.2817812 8.8105469 8.1325625 8.8217031 7.9765625 8.8457031 C 7.8205625 8.8637031 7.6769219 8.9084687 7.5449219 8.9804688 C 7.4129219 9.0464688 7.3047031 9.1397656 7.2207031 9.2597656 C 7.1367031 9.3797656 7.09375 9.5383281 7.09375 9.7363281 C 7.09375 9.9103281 7.1217812 10.057734 7.1757812 10.177734 C 7.2357812 10.297734 7.3159688 10.394797 7.4179688 10.466797 C 7.5259687 10.538797 7.652875 10.592906 7.796875 10.628906 C 7.946875 10.658906 8.1147813 10.673828 8.3007812 10.673828 C 8.5287813 10.673828 8.7265312 10.666297 8.8945312 10.654297 C 9.0685312 10.636297 9.2159375 10.615797 9.3359375 10.591797 L 9.3359375 8.953125 C 9.2699375 8.923125 9.1635313 8.8932813 9.0195312 8.8632812 C 8.8755312 8.8272812 8.6777813 8.8105469 8.4257812 8.8105469 z "
     id="path4" />
</svg>

<svg xmlns="http://www.w3.org/2000/svg" viewBox="0 0 16 16">
 <path d="m 1.6 0 c -0.886 0 -1.6 0.713 -1.6 1.6 l 0 12.801 c 0 0.886 0.713 1.6 1.6 1.6 l 12.801 0 c 0.886 0 1.6 -0.713 1.6 -1.6 l 0 -12.801 c 0 -0.886 -0.713 -1.6 -1.6 -1.6 l -12.801 0 z m 0.945 4.859 l 3.555 0 l 0 0.531 l -2.943 0 l 0 2.195 l 2.611 0 l 0 0.531 l -2.611 0 l 0 2.979 l -0.611 0 l 0 -6.236 z m 5.701 1.477 c 0.306 0 0.563 0.045 0.773 0.135 c 0.216 0.084 0.391 0.203 0.523 0.359 c 0.132 0.15 0.227 0.329 0.287 0.539 c 0.06 0.21 0.09 0.44 0.09 0.686 l 0 2.934 c -0.06 0.018 -0.148 0.038 -0.262 0.063 c -0.114 0.018 -0.245 0.038 -0.395 0.063 c -0.15 0.024 -0.318 0.043 -0.504 0.055 c -0.18 0.018 -0.367 0.027 -0.559 0.027 c -0.246 0 -0.474 -0.028 -0.684 -0.082 c -0.204 -0.054 -0.385 -0.138 -0.541 -0.252 c -0.15 -0.12 -0.269 -0.269 -0.359 -0.449 c -0.084 -0.186 -0.127 -0.412 -0.127 -0.676 c 0 -0.252 0.049 -0.466 0.145 -0.646 c 0.096 -0.18 0.232 -0.327 0.406 -0.441 c 0.174 -0.12 0.381 -0.208 0.621 -0.262 c 0.24 -0.054 0.499 -0.08 0.781 -0.08 c 0.084 0 0.172 0.006 0.262 0.018 c 0.096 0.006 0.186 0.017 0.27 0.035 c 0.09 0.012 0.165 0.027 0.225 0.045 c 0.066 0.012 0.113 0.025 0.137 0.037 l 0 -0.289 c 0 -0.162 -0.013 -0.317 -0.037 -0.467 c -0.024 -0.156 -0.078 -0.294 -0.162 -0.414 c -0.078 -0.126 -0.192 -0.225 -0.342 -0.297 c -0.144 -0.078 -0.336 -0.117 -0.576 -0.117 c -0.342 0 -0.596 0.024 -0.764 0.072 c -0.168 0.048 -0.291 0.087 -0.369 0.117 l -0.082 -0.514 c 0.102 -0.048 0.259 -0.093 0.469 -0.135 c 0.216 -0.042 0.473 -0.063 0.773 -0.063 z m 3.881 2.418 c 0.394 0 0.69 0.098 0.889 0.293 c 0.199 0.191 0.299 0.458 0.299 0.801 c 0 0.152 -0.027 0.297 -0.082 0.434 c -0.055 0.133 -0.129 0.262 -0.223 0.387 c -0.09 0.125 -0.192 0.244 -0.309 0.361 c -0.117 0.117 -0.237 0.235 -0.357 0.352 c -0.101 0.098 -0.201 0.197 -0.299 0.299 c -0.094 0.098 -0.18 0.197 -0.258 0.299 c -0.074 0.097 -0.133 0.194 -0.18 0.291 c -0.043 0.094 -0.064 0.188 -0.064 0.281 l 0 0.012 l 1.912 0 l 0 0.334 l -2.334 0 c 0 -0.008 -0.002 -0.022 -0.006 -0.041 l 0 -0.1 c 0 -0.183 0.033 -0.354 0.1 -0.51 c 0.066 -0.16 0.151 -0.309 0.252 -0.449 c 0.105 -0.14 0.219 -0.272 0.344 -0.393 c 0.129 -0.121 0.252 -0.238 0.369 -0.352 c 0.097 -0.094 0.19 -0.184 0.275 -0.27 c 0.09 -0.09 0.168 -0.18 0.234 -0.273 c 0.066 -0.094 0.117 -0.194 0.156 -0.299 c 0.039 -0.105 0.059 -0.221 0.059 -0.346 c 0 -0.273 -0.073 -0.467 -0.221 -0.584 c -0.144 -0.121 -0.328 -0.182 -0.551 -0.182 c -0.125 0 -0.236 0.016 -0.334 0.047 c -0.098 0.031 -0.182 0.068 -0.256 0.111 c -0.07 0.039 -0.131 0.08 -0.182 0.123 c -0.051 0.043 -0.088 0.076 -0.111 0.1 l -0.199 -0.264 c 0.023 -0.027 0.065 -0.066 0.123 -0.117 c 0.062 -0.055 0.139 -0.108 0.229 -0.158 c 0.094 -0.051 0.199 -0.094 0.32 -0.129 c 0.121 -0.039 0.256 -0.059 0.404 -0.059 z m -3.701 0.057 c -0.144 0 -0.293 0.011 -0.449 0.035 c -0.156 0.018 -0.3 0.063 -0.432 0.135 c -0.132 0.066 -0.24 0.159 -0.324 0.279 c -0.084 0.12 -0.127 0.279 -0.127 0.477 c 0 0.174 0.028 0.321 0.082 0.441 c 0.06 0.12 0.14 0.217 0.242 0.289 c 0.108 0.072 0.235 0.126 0.379 0.162 c 0.15 0.03 0.318 0.045 0.504 0.045 c 0.228 0 0.426 -0.008 0.594 -0.02 c 0.174 -0.018 0.321 -0.038 0.441 -0.063 l 0 -1.639 c -0.066 -0.03 -0.172 -0.06 -0.316 -0.09 c -0.144 -0.036 -0.342 -0.053 -0.594 -0.053 z" style="fill:#353535;fill-opacity:1"/>
</svg>
